src/resources/assets/enter-fullscreen.svg

<svg xmlns="http://www.w3.org/2000/svg" width="16" height="16"><path d="M 3 3.832031 C 3 3.375 3.375 3 3.832031 3 L 5.167969 3 C 5.441406 3 5.667969 2.777344 5.667969 2.5 C 5.667969 2.222656 5.441406 2 5.167969 2 L 3.832031 2 C 2.820312 2 2 2.820312 2 3.832031 L 2 5.167969 C 2 5.441406 2.222656 5.667969 2.5 5.667969 C 2.777344 5.667969 3 5.441406 3 5.167969 Z M 3 12.167969 C 3 12.625 3.375 13 3.832031 13 L 5.167969 13 C 5.441406 13 5.667969 13.222656 5.667969 13.5 C 5.667969 13.777344 5.441406 14 5.167969 14 L 3.832031 14 C 2.820312 14 2 13.179688 2 12.167969 L 2 10.832031 C 2 10.558594 2.222656 10.332031 2.5 10.332031 C 2.777344 10.332031 3 10.558594 3 10.832031 Z M 12.167969 3 C 12.625 3 13 3.375 13 3.832031 L 13 5.167969 C 13 5.441406 13.222656 5.667969 13.5 5.667969 C 13.777344 5.667969 14 5.441406 14 5.167969 L 14 3.832031 C 14 2.820312 13.179688 2 12.167969 2 L 10.832031 2 C 10.558594 2 10.332031 2.222656 10.332031 2.5 C 10.332031 2.777344 10.558594 3 10.832031 3 Z M 13 12.167969 C 13 12.625 12.625 13 12.167969 13 L 10.832031 13 C 10.558594 13 10.332031 13.222656 10.332031 13.5 C 10.332031 13.777344 10.558594 14 10.832031 14 L 12.167969 14 C 13.179688 14 14 13.179688 14 12.167969 L 14 10.832031 C 14 10.558594 13.777344 10.332031 13.5 10.332031 C 13.222656 10.332031 13 10.558594 13 10.832031 Z M 13 12.167969" fill="#ddd"/></svg>

<svg xmlns="http://www.w3.org/2000/svg" width="16" height="16"><path d="M3 3.832C3 3.375 3.375 3 3.832 3h1.336a.501.501 0 000-1H3.832C2.82 2 2 2.82 2 3.832v1.336a.501.501 0 001 0zm0 8.336c0 .457.375.832.832.832h1.336a.501.501 0 010 1H3.832A1.832 1.832 0 012 12.168v-1.336a.501.501 0 011 0zM12.168 3c.457 0 .832.375.832.832v1.336a.501.501 0 001 0V3.832C14 2.82 13.18 2 12.168 2h-1.336a.501.501 0 000 1zM13 12.168a.835.835 0 01-.832.832h-1.336a.501.501 0 000 1h1.336C13.18 14 14 13.18 14 12.168v-1.336a.501.501 0 00-1 0zm0 0" fill="#ddd"/></svg>
